dist/icons/svgs/location-pen-solid.svg

<svg xmlns="http://www.w3.org/2000/svg" width="24" height="24" fill="currentcolor" class="icon-location-pen-solid" viewBox="0 0 24 24">
  <path d="M13.3984 21.5312C12.9297 22.1172 12.0312 22.1172 11.5625 21.5312C9.57031 18.9922 5 12.9375 5 9.5C5 5.35938 8.35938 2 12.5 2C16.6406 2 20 5.35938 20 9.5C20 12.9375 15.4297 18.9922 13.3984 21.5312ZM15.7812 6.17969C15.2344 5.63281 14.2969 5.63281 13.7109 6.17969L13.125 6.76562L15.1953 8.875L15.7812 8.28906C16.3672 7.70312 16.3672 6.76562 15.7812 6.17969ZM9.45312 10.4766C9.29688 10.6328 9.17969 10.8281 9.10156 11.0625L8.75 12.4688C8.71094 12.7031 8.75 12.9375 8.90625 13.0938C9.0625 13.25 9.29688 13.2891 9.49219 13.25L10.9375 12.8984C11.1719 12.8203 11.3672 12.7031 11.5234 12.5469L14.3359 9.73438L12.2656 7.66406L9.45312 10.4766Z"/>
</svg>

<svg xmlns="http://www.w3.org/2000/svg" width="24" height="24" fill="currentColor" class="icon-location-pen-solid" viewBox="0 0 24 24">
  <path d="M13.398 21.531a1.178 1.178 0 0 1-1.835 0C9.57 18.992 5 12.938 5 9.5 5 5.36 8.36 2 12.5 2S20 5.36 20 9.5c0 3.438-4.57 9.492-6.602 12.031M15.781 6.18c-.547-.547-1.484-.547-2.07 0l-.586.586 2.07 2.109.586-.586a1.485 1.485 0 0 0 0-2.11m-6.328 4.297a1.5 1.5 0 0 0-.351.585L8.75 12.47c-.04.234 0 .469.156.625s.39.195.586.156l1.445-.352a1.5 1.5 0 0 0 .586-.351l2.813-2.813-2.07-2.07z"/>
</svg>
